src/containers/site/SiteRobotsScreen/asset/kraken.svg

<svg width="180" height="29" viewBox="0 0 180 29" fill="none" xmlns="http://www.w3.org/2000/svg">
<g clip-path="url(#clip0)">
<path d="M16.9313 -3.73274e-05C19.3758 -0.159494 21.8271 0.184991 24.133 1.01205C26.4389 1.83911 28.5503 3.13111 30.3363 4.80792C32.1222 6.48473 33.5446 8.51059 34.5153 10.7599C35.4859 13.0091 35.9841 15.4338 35.9789 17.8836V26.3492C35.7672 27.0899 35.2381 27.7248 34.4974 28.0423C34.0741 28.3597 33.4392 28.3597 32.9101 28.2539C31.7461 28.0423 30.8995 26.9841 30.8995 25.8201V18.7301C30.8995 18.0952 30.8995 17.3545 30.582 16.8254C29.9471 15.7672 28.5715 15.2381 27.4074 15.6613C26.4551 15.9788 25.7143 17.037 25.7143 17.9894V25.1851L25.6085 26.455C25.3969 27.3015 24.6561 27.9365 23.8096 28.2539C22.7514 28.5714 21.4815 28.0423 20.9524 26.9841C20.5291 26.455 20.5291 25.7142 20.635 24.9735L20.5291 17.8836C20.5101 17.3893 20.3472 16.9114 20.0604 16.5085C19.7736 16.1056 19.3754 15.7951 18.9146 15.6153C18.4539 15.4355 17.9507 15.3942 17.4667 15.4963C16.9828 15.5985 16.5393 15.8397 16.1905 16.1904C15.7672 16.6137 15.4498 17.3545 15.4498 17.9894V24.8677C15.4498 25.5026 15.4498 26.0317 15.2381 26.6666C14.9207 27.619 13.9683 28.3597 12.9101 28.2539C11.8519 28.3597 10.7937 27.619 10.4762 26.5608C10.2646 26.1375 10.2646 25.6084 10.2646 25.0793V17.8836C10.2646 16.7195 9.41803 15.6613 8.25401 15.4497C7.87924 15.3698 7.49125 15.3757 7.1191 15.467C6.74695 15.5583 6.40028 15.7327 6.10507 15.977C5.80986 16.2213 5.57377 16.5292 5.41447 16.8777C5.25517 17.2262 5.1768 17.6063 5.18522 17.9894V25.7142C5.17185 26.1881 5.03139 26.6496 4.77855 27.0506C4.52571 27.4516 4.16977 27.7773 3.74796 27.9936C3.32615 28.2099 2.85397 28.3089 2.3808 28.2802C1.90763 28.2516 1.45085 28.0963 1.05824 27.8306C0.42332 27.3015 3.95441e-05 26.5608 3.95441e-05 25.7142V17.9894C-0.00954959 13.4133 1.72515 9.00553 4.85102 5.66341C7.97688 2.3213 12.2589 0.296054 16.8254 -3.73274e-05H16.9313Z" fill="#B5B5B5"/>
<path d="M86.984 9.10057H83.0686C83.2803 6.34925 83.8094 3.91539 86.3491 2.32808C88.7829 0.740782 91.5342 0.423322 94.3914 0.634962C95.9787 0.740782 97.4602 1.05824 98.8358 1.79898C101.376 2.963 102.54 4.86777 102.54 7.61909V22.1164C102.54 23.8096 102.963 24.2328 104.762 24.0212L105.291 23.9154L105.397 24.127V27.09C103.915 27.6191 102.54 27.7249 101.058 27.3016C99.9999 27.09 99.3649 26.3493 99.0475 25.291L98.5184 23.7037L98.0951 24.127C95.0263 27.3016 91.4284 28.5715 87.0898 27.5133C84.021 26.6667 81.9046 23.9154 81.7988 20.7408C81.7988 19.6826 81.9046 18.7302 82.1163 17.672C82.6454 15.4498 84.3385 14.0741 86.3491 13.1217C87.8305 12.4868 89.4178 12.2752 90.8993 12.0635L96.402 11.4286C97.6718 11.217 98.2009 10.5821 98.4125 9.31221C98.8358 6.87835 97.7776 5.18523 95.3438 4.55031C93.8623 4.23285 92.3808 4.12703 90.8993 4.44449C88.7829 4.86777 87.6189 6.03179 87.1956 8.14819L86.984 9.10057ZM98.5184 13.8625C96.7194 14.8149 95.0263 15.0265 93.2274 15.344C91.7459 15.5556 90.2644 15.7672 88.7829 16.2963C86.8782 16.8254 86.0316 18.4127 86.2432 20.5291C86.3491 22.3281 87.5131 23.7037 89.4178 24.0212C92.3808 24.4445 94.9205 23.7037 96.9311 21.4815C97.566 20.9524 97.9893 20 98.0951 19.1535C98.4125 17.4604 98.4125 15.7672 98.5184 13.8625ZM154.074 18.9418L153.862 20C152.169 25.1852 148.783 27.4074 144.656 27.8307C137.46 28.5715 133.333 23.9154 132.275 18.9418C131.428 14.9207 131.534 11.0053 133.333 7.30163C134.92 3.80957 137.566 1.48152 141.481 0.740782C146.243 4.1604e-05 152.91 2.32808 154.074 9.62967L154.603 15.4498H136.296C136.508 18.2011 136.931 20.7408 138.836 22.6455C139.682 23.4921 140.741 23.9154 141.905 24.0212C145.608 24.6561 148.571 22.963 149.841 19.3651C149.947 19.0477 150.159 18.9418 150.476 18.9418H154.074ZM136.508 11.9577H150.159C149.947 10.4762 149.735 8.99475 148.995 7.61909C148.254 6.24343 147.196 5.29105 145.714 4.76195C144.608 4.41232 143.433 4.33937 142.293 4.5495C141.152 4.75963 140.08 5.24642 139.171 5.96718C138.263 6.68794 137.545 7.62066 137.08 8.68354C136.616 9.74643 136.419 10.907 136.508 12.0635V11.9577ZM163.915 26.9842H159.788V1.26988H163.704V4.86777L164.338 4.12703C167.196 0.846602 170.794 4.1604e-05 174.815 1.05824C177.566 1.69316 179.153 3.70375 179.682 6.45507L180 9.94713V26.9842H175.767V26.2434V10.7937C175.767 9.62967 175.555 8.46565 175.238 7.40745C174.709 5.60851 173.227 4.65613 171.323 4.55031C167.936 4.44449 165.185 6.24343 164.338 9.31221C164.021 10.4762 164.021 11.6403 163.915 12.8043V26.9842ZM109.312 1.26988H113.333V12.1694L113.862 11.6403L123.704 1.58734C124.021 1.26988 124.233 1.16406 124.656 1.16406H129.418L128.995 1.69316L120.317 10.3704C120 10.6879 120 10.8995 120.211 11.3228L129.629 26.3493L129.947 26.9842H125.185C124.762 26.9842 124.55 26.8784 124.338 26.5609L117.143 14.4974L116.825 13.8625L113.545 17.1429L113.333 17.7778V26.9842H111.005C110.476 26.9842 109.735 27.09 109.418 26.8784C109.206 26.5609 109.312 25.8202 109.312 25.291V2.01062V1.26988ZM63.2803 1.16406L53.6506 10.6879L63.8094 26.9842H59.0475C58.6242 26.9842 58.4125 26.8784 58.2009 26.5609L51.0051 14.3916L50.6877 13.8625L48.8887 15.6614C47.5131 16.7196 47.0898 17.9895 47.1956 19.5768V26.9842H43.2803V1.26988H47.1956V11.9577L47.5131 12.1694L47.8305 11.5344L57.566 1.58734C57.7776 1.26988 58.0951 1.16406 58.5184 1.16406H63.2803ZM71.2168 5.50269C73.2274 2.53972 75.3438 0.105862 79.2591 0.740782V5.18523C78.3067 5.29105 77.2485 5.18523 76.1903 5.39687C73.7565 5.92597 71.8517 8.14819 71.5342 10.7937L71.4284 12.4868V26.9842H67.3014V1.26988H71.2168V5.50269Z" fill="#B5B5B5"/>
</g>
<defs>
<clipPath id="clip0">
<rect width="180" height="28.254" fill="white"/>
</clipPath>
</defs>
</svg>

<svg width="180" height="29" fill="none" xmlns="http://www.w3.org/2000/svg"><g clip-path="url(#clip0)" fill="#B5B5B5"><path d="M16.931 0A17.884 17.884 0 0135.98 17.884v8.465a2.62 2.62 0 01-1.482 1.693c-.423.318-1.058.318-1.587.212-1.164-.212-2.01-1.27-2.01-2.434v-7.09c0-.635 0-1.375-.318-1.905-.635-1.058-2.01-1.587-3.175-1.164-.952.318-1.693 1.376-1.693 2.328v7.196l-.105 1.27c-.212.847-.953 1.482-1.8 1.799-1.058.317-2.328-.212-2.857-1.27-.423-.529-.423-1.27-.317-2.01l-.106-7.09a2.54 2.54 0 00-4.338-1.694c-.424.424-.741 1.165-.741 1.8v6.878c0 .635 0 1.164-.212 1.799-.317.952-1.27 1.693-2.328 1.587-1.058.106-2.116-.635-2.434-1.693-.211-.424-.211-.953-.211-1.482v-7.195c0-1.165-.847-2.223-2.011-2.434a2.54 2.54 0 00-3.069 2.54v7.724a2.645 2.645 0 01-4.127 2.117C.423 27.3 0 26.56 0 25.714V17.99A17.99 17.99 0 0116.825 0h.106zM86.984 9.1h-3.915c.211-2.75.74-5.185 3.28-6.772C88.783.741 91.534.423 94.391.635c1.588.106 3.07.423 4.445 1.164 2.54 1.164 3.704 3.069 3.704 5.82v14.497c0 1.694.423 2.117 2.222 1.905l.529-.106.106.212v2.963c-1.482.53-2.857.635-4.339.212-1.058-.212-1.693-.953-2.01-2.011l-.53-1.587-.423.423c-3.069 3.175-6.667 4.445-11.005 3.386-3.069-.846-5.185-3.598-5.291-6.772 0-1.058.106-2.01.317-3.069.53-2.222 2.222-3.598 4.233-4.55 1.481-.635 3.069-.847 4.55-1.059l5.503-.634c1.27-.212 1.799-.847 2.01-2.117.424-2.434-.634-4.127-3.068-4.762-1.482-.317-2.963-.423-4.445-.106-2.116.424-3.28 1.588-3.703 3.704l-.212.953zm11.534 4.763c-1.799.952-3.492 1.164-5.29 1.481-1.482.212-2.964.423-4.445.952-1.905.53-2.751 2.117-2.54 4.233.106 1.8 1.27 3.175 3.175 3.492 2.963.424 5.502-.317 7.513-2.54.635-.529 1.058-1.481 1.164-2.328.317-1.693.317-3.386.423-5.29zm55.556 5.079L153.862 20c-1.693 5.185-5.079 7.407-9.206 7.83-7.196.742-11.323-3.915-12.381-8.888-.847-4.021-.741-7.937 1.058-11.64 1.587-3.492 4.233-5.82 8.148-6.561C146.243 0 152.91 2.328 154.074 9.63l.529 5.82h-18.307c.212 2.751.635 5.29 2.54 7.195.846.847 1.905 1.27 3.069 1.376 3.703.635 6.666-1.058 7.936-4.656.106-.317.318-.423.635-.423h3.598zm-17.566-6.984h13.651c-.212-1.482-.424-2.963-1.164-4.339-.741-1.376-1.799-2.328-3.281-2.857a7.088 7.088 0 00-9.206 7.301v-.105zm27.407 15.026h-4.127V1.27h3.916v3.598l.634-.741c2.858-3.28 6.456-4.127 10.477-3.069 2.751.635 4.338 2.646 4.867 5.397L180 9.947v17.037h-4.233V10.794c0-1.164-.212-2.328-.529-3.387-.529-1.798-2.011-2.75-3.915-2.857-3.387-.106-6.138 1.693-6.985 4.762-.317 1.164-.317 2.328-.423 3.492v14.18zM109.312 1.27h4.021v10.9l.529-.53 9.842-10.053c.317-.317.529-.423.952-.423h4.762l-.423.53-8.678 8.676c-.317.318-.317.53-.106.953l9.418 15.026.318.635h-4.762c-.423 0-.635-.106-.847-.423l-7.195-12.064-.318-.634-3.28 3.28-.212.635v9.206h-2.328c-.529 0-1.27.106-1.587-.106-.212-.317-.106-1.058-.106-1.587V1.27zM63.28 1.164l-9.63 9.524 10.16 16.296h-4.763c-.423 0-.634-.106-.846-.423l-7.196-12.17-.317-.528-1.8 1.798c-1.375 1.059-1.798 2.329-1.692 3.916v7.407H43.28V1.27h3.916v10.688l.317.211.318-.635 9.735-9.947c.212-.317.53-.423.952-.423h4.762zm7.937 4.339C73.227 2.54 75.344.106 79.259.74v4.444c-.952.106-2.01 0-3.069.212-2.433.529-4.338 2.751-4.656 5.397l-.106 1.693v14.497h-4.127V1.27h3.916v4.233z"/></g><defs><clipPath id="clip0"><path fill="#fff" d="M0 0h180v28.254H0z"/></clipPath></defs></svg>
